X:8
T:Polska efter Anders Fredrk Andersson
T:(SvL Småland 8)
R:Polska
O:Tryserum, Småland
S:Efter Anders Fredrik Andersson
B:Svenska Låtar Småland
M:3/4
L:1/16
K:G
d2Bc dcBc d4|e2fg agfg d4|Lbgag f2g2 e4|dcBc A2G2 G4:|
|:D2F2 AFAF AF-FA|c2cA B2G2- G2B2|dBGB dBGB dedc|
A2FA cBcA G2Bc|d2ef gagf g2e2|dcBc A2G2 G4:|

